src/assets/images/reactions/women/small/dislike.svg

<svg width="15" height="15" viewBox="0 0 15 15" fill="none" xmlns="http://www.w3.org/2000/svg">
<g clip-path="url(#clip0_862_5027)">
<path d="M14.6602 1.19565L14.6602 6.95652L11.9329 7.5L10.9102 6.95652L10.6829 1.19565L11.3647 0.434784L13.9783 0.543479L14.6602 1.19565Z" fill="#D953DC"/>
<path d="M10.9082 0.761082L10.9082 7.28282L9.09002 9.23934L7.49911 12.6089L7.38548 13.9133L6.93093 14.5654L5.79457 14.348L5.11275 13.0437L6.02184 9.78282L5.68093 9.02195L2.61275 9.23934L0.908203 8.58717L0.680929 6.84804L0.680929 4.13065L1.36275 2.50021L1.93093 1.08717L3.63547 0.326299L10.9082 0.761082Z" fill="#FACCB4"/>
<path fill-rule="evenodd" clip-rule="evenodd" d="M7.0726 14.9798C7.3332 14.9018 7.53469 14.7022 7.64653 14.4112C7.7338 14.1843 7.77923 13.8064 7.7565 13.4968L7.73685 13.2288L7.91564 12.7927C8.50718 11.3499 9.24011 9.96934 9.80015 9.2429C9.92278 9.08384 10.1396 8.84502 10.282 8.71216C10.5727 8.44089 10.7109 8.26945 10.9165 7.92499L11.0577 7.68837L11.2603 7.75558C11.4579 7.82108 11.4926 7.82279 12.6557 7.82352C13.9251 7.82434 13.9991 7.81748 14.292 7.67229C14.549 7.54492 14.8107 7.24121 14.9321 6.92954C14.9864 6.79014 14.9896 6.64986 14.9982 4.09865C15.0038 2.43561 14.996 1.34368 14.9776 1.22845C14.8886 0.671011 14.4208 0.216748 13.8536 0.136926C13.7491 0.122229 13.2023 0.110142 12.6386 0.110084C11.5164 0.109996 11.3272 0.129533 11.0554 0.273454L10.906 0.352602L10.3555 0.288797C8.94598 0.125427 7.9567 0.0647313 5.95725 0.0189389C4.8548 -0.00631911 4.38734 -0.00631907 4.07316 0.0189981C2.82891 0.119208 1.89718 0.503594 1.42417 1.11184C1.15545 1.45741 1.04738 1.77603 1.04295 2.23584C1.04018 2.5247 1.03864 2.53078 0.942022 2.63187C0.664987 2.92185 0.45599 3.27831 0.373391 3.60182C0.30475 3.87066 0.309361 4.29673 0.384002 4.58075L0.44378 4.80825L0.351987 4.93809C0.10772 5.28355 -0.0256432 5.72232 0.00411051 6.08245C0.0275032 6.36589 0.147331 6.71968 0.295374 6.94263L0.417916 7.12712L0.372577 7.25658C0.246931 7.61547 0.248047 8.0702 0.375471 8.411C0.456864 8.62876 0.681356 8.93317 0.877934 9.09238C1.62436 9.69696 3.08032 9.83034 4.97339 9.46755C5.22664 9.41903 5.45283 9.37925 5.47601 9.37919C5.51034 9.3791 5.51447 9.42545 5.49831 9.62986C5.47375 9.94094 5.38488 10.3104 5.15294 11.0659C4.92649 11.8036 4.85637 12.119 4.81893 12.5691C4.78676 12.9556 4.81076 13.2947 4.8911 13.5887C5.07097 14.2471 5.61278 14.77 6.28888 14.9379C6.53007 14.9978 6.9395 15.0197 7.0726 14.9798ZM6.43544 14.0994C5.9851 13.9518 5.75536 13.6418 5.69278 13.0974C5.64151 12.6514 5.72856 12.1437 6.00379 11.2836C6.29325 10.379 6.40066 9.82222 6.37663 9.35062C6.34865 8.80107 6.09423 8.49982 5.65751 8.49918C5.59816 8.49909 5.31328 8.54559 5.02446 8.6025C4.13445 8.77793 3.90218 8.80292 3.14282 8.80506C2.58464 8.80665 2.39672 8.79658 2.17883 8.75349C1.2707 8.57387 0.94347 8.06689 1.27477 7.35286C1.42408 7.03105 1.4154 6.9705 1.17942 6.68861C0.758949 6.18624 0.776525 5.74025 1.23784 5.20646C1.40288 5.01548 1.4188 4.85982 1.30015 4.59654C1.22337 4.42613 1.21457 4.37362 1.21405 4.08398C1.21354 3.78605 1.22029 3.74786 1.30184 3.58598C1.36255 3.46544 1.47267 3.3317 1.65424 3.15803C1.80985 3.00915 1.92714 2.87116 1.93983 2.82205C1.95165 2.7762 1.94421 2.61729 1.92325 2.46888C1.87876 2.15343 1.9064 1.97343 2.03455 1.74429C2.25356 1.35269 2.83536 1.06012 3.69423 0.909658C3.9464 0.865479 4.16001 0.85923 5.23792 0.86451C7.29908 0.874572 8.88674 0.957504 10.2119 1.12428L10.3476 1.14135L10.3377 3.74208C10.3309 5.5588 10.3383 6.43673 10.3624 6.65432C10.3969 6.96451 10.3967 6.96668 10.3104 7.18236C10.1576 7.56452 9.99226 7.80064 9.62467 8.1617C9.05553 8.72069 8.6 9.38573 8.02847 10.492C7.67074 11.1844 7.35078 11.8794 7.06572 12.5833L6.867 13.0739L6.87394 13.5073C6.87774 13.7457 6.87005 13.9903 6.85688 14.0508C6.83472 14.1524 6.82489 14.1608 6.72779 14.1608C6.67 14.1608 6.53842 14.1332 6.43544 14.0994ZM11.4476 6.90754C11.3928 6.87122 11.3195 6.80428 11.2848 6.75872C11.2219 6.67608 11.2218 6.66937 11.2218 3.98436L11.2218 1.29281L11.303 1.1733C11.4471 0.961464 11.4833 0.956243 12.7344 0.965953C13.7817 0.974079 13.8283 0.976808 13.9082 1.03489C13.954 1.06816 14.0194 1.13182 14.0536 1.17638C14.1152 1.25661 14.1158 1.28248 14.1237 3.93399L14.1317 6.61058L14.0627 6.73763C13.9339 6.97469 13.9407 6.97355 12.6661 6.97355C11.5554 6.97355 11.5465 6.97308 11.4476 6.90754Z" fill="#E2A88A"/>
<path d="M11.3797 8L14.6203 8C14.8299 8 15 7.81214 15 7.5807L15 0.424604C15 0.192883 14.8299 0.00530149 14.6203 3.31985e-08L12.1899 2.45669e-07C11.7243 0.00530176 11.3205 0.301893 11.1253 0.732941C11.0451 0.909335 11 1.10863 11 1.31912L11 7.5807C11 7.81217 11.1701 8 11.3797 8Z" fill="#EB3E7D"/>
</g>
<defs>
<clipPath id="clip0_862_5027">
<rect width="15" height="15" fill="white"/>
</clipPath>
</defs>
</svg>

<svg xmlns="http://www.w3.org/2000/svg" width="15" height="15" fill="none">
  <g clip-path="url(#a)">
    <path fill="#D953DC" d="M14.66 1.196v5.76l-2.727.544-1.023-.543-.227-5.761.682-.761 2.613.108.682.653Z"/>
    <path fill="#FACCB4" d="M10.908.761v6.522L9.09 9.239 7.5 12.61l-.115 1.304-.454.652-1.136-.217-.682-1.304.909-3.261-.341-.761-3.068.217-1.705-.652-.227-1.739V4.131l.682-1.63.568-1.414 1.704-.76 7.273.434Z"/>
    <path fill="#E2A88A" fill-rule="evenodd" d="M7.073 14.98c.26-.078.462-.278.574-.569.087-.227.132-.605.11-.914l-.02-.268.179-.436C8.507 11.35 9.24 9.969 9.8 9.243c.123-.16.34-.398.482-.53.29-.272.429-.444.634-.788l.142-.237.202.068c.198.065.233.067 1.396.068 1.27 0 1.343-.007 1.636-.152.257-.127.519-.43.64-.742.054-.14.058-.28.066-2.831.006-1.663-.002-2.755-.02-2.87A1.338 1.338 0 0 0 13.854.136 18.282 18.282 0 0 0 12.639.11c-1.123 0-1.312.02-1.584.163l-.149.08-.55-.064c-1.41-.164-2.4-.224-4.399-.27-1.102-.025-1.57-.025-1.884 0-1.244.1-2.176.485-2.649 1.093-.269.345-.377.664-.381 1.124-.003.289-.004.295-.101.396-.277.29-.486.646-.569.97-.068.269-.064.695.011.979l.06.227-.092.13c-.244.346-.378.784-.348 1.144.024.284.143.638.291.86l.123.185-.045.13c-.126.358-.125.813.002 1.154.082.218.306.522.503.681.746.605 2.202.738 4.095.376.254-.049.48-.089.503-.089.034 0 .038.046.022.25-.024.312-.113.681-.345 1.437-.227.738-.297 1.053-.334 1.503-.032.387-.008.726.072 1.02.18.658.722 1.181 1.398 1.349.241.06.65.082.784.042Zm-.638-.88c-.45-.148-.68-.458-.742-1.003-.051-.446.036-.953.31-1.813.29-.905.398-1.462.374-1.933-.028-.55-.283-.851-.72-.852-.059 0-.344.047-.633.103-.89.176-1.122.2-1.881.203-.558.002-.746-.008-.964-.052-.908-.18-1.236-.686-.904-1.4.15-.322.14-.382-.096-.664-.42-.503-.402-.949.059-1.483.165-.19.18-.346.062-.61-.077-.17-.085-.222-.086-.512 0-.298.006-.336.088-.498.06-.12.17-.254.352-.428.156-.149.273-.287.286-.336a1.425 1.425 0 0 0-.017-.353c-.044-.316-.017-.496.112-.725.219-.391.8-.684 1.66-.834.251-.045.465-.05 1.543-.045 2.061.01 3.649.093 4.974.26l.136.016-.01 2.601c-.007 1.817 0 2.695.024 2.912.035.31.035.313-.052.528-.152.383-.318.619-.685.98-.57.559-1.025 1.224-1.597 2.33a24.96 24.96 0 0 0-.962 2.091l-.199.49.007.434c.004.239-.004.483-.017.544-.022.101-.032.11-.13.11-.057 0-.189-.028-.292-.062Zm5.013-7.192a.799.799 0 0 1-.163-.15c-.063-.082-.063-.089-.063-2.774V1.293l.081-.12c.144-.212.18-.217 1.431-.207 1.048.008 1.094.01 1.174.069a.85.85 0 0 1 .146.141c.061.08.062.106.07 2.758l.008 2.677-.07.127c-.128.237-.121.236-1.396.236-1.11 0-1.12 0-1.218-.066Z" clip-rule="evenodd"/>
    <path fill="#EB3E7D" d="M11.38 8h3.24c.21 0 .38-.188.38-.42V.426c0-.232-.17-.42-.38-.425h-2.43c-.466.005-.87.302-1.065.733-.08.176-.125.376-.125.586v6.262c0 .231.17.419.38.419Z"/>
  </g>
  <defs>
    <clipPath id="a">
      <path fill="#fff" d="M0 0h15v15H0z"/>
    </clipPath>
  </defs>
</svg>
